assets/icons/volume.svg

<svg width="25" height="24" viewBox="0 0 25 24" fill="none" xmlns="http://www.w3.org/2000/svg">
<path d="M11.8715 3.97609C12.5583 3.4485 13.3756 3.02006 14.2469 3.38857C15.1101 3.75367 15.3875 4.63316 15.5073 5.49834C15.6301 6.38508 15.6301 7.60606 15.6301 9.12414V14.8799C15.6301 16.398 15.6301 17.619 15.5073 18.5057C15.3875 19.3709 15.1101 20.2504 14.2469 20.6155C13.3756 20.984 12.5583 20.5556 11.8715 20.028C11.1691 19.4885 10.2765 18.577 9.22655 17.5049C8.68709 16.954 8.32909 16.6878 7.96651 16.5379C7.60209 16.3873 7.15902 16.3234 6.38607 16.3234C5.71756 16.3234 5.11951 16.3234 4.66667 16.2763C4.19172 16.227 3.75076 16.1196 3.35409 15.849C2.59828 15.3333 2.30905 14.5782 2.19945 13.8843C2.11773 13.3668 2.12711 12.7986 2.13467 12.341V11.6631C2.12711 11.2055 2.11773 10.6373 2.19945 10.1198C2.30905 9.42585 2.59828 8.67078 3.35409 8.15511C3.75076 7.88447 4.19172 7.77706 4.66667 7.72772C5.11951 7.68068 5.71756 7.6807 6.38607 7.68072C7.15902 7.68072 7.60209 7.61677 7.96651 7.46612C8.3291 7.31623 8.68705 7.05003 9.22651 6.49918C10.2765 5.42704 11.1691 4.5156 11.8715 3.97609Z" fill="white"/>
<path fill-rule="evenodd" clip-rule="evenodd" d="M17.2734 8.20553C17.7124 7.87052 18.34 7.95488 18.675 8.39396C19.4318 9.38588 19.88 10.6423 19.88 12.0006C19.88 13.3588 19.4318 14.6152 18.675 15.6071C18.34 16.0462 17.7124 16.1306 17.2734 15.7956C16.8343 15.4606 16.7499 14.833 17.0849 14.394C17.5789 13.7465 17.88 12.9154 17.88 12.0006C17.88 11.0857 17.5789 10.2546 17.0849 9.60713C16.7499 9.16805 16.8343 8.54053 17.2734 8.20553Z" fill="white"/>
<path fill-rule="evenodd" clip-rule="evenodd" d="M20.2046 6.26294C20.612 5.88999 21.2445 5.91787 21.6175 6.32521C23.0207 7.85779 23.8799 9.83296 23.8799 12.0005C23.8799 14.168 23.0207 16.1432 21.6175 17.6758C21.2445 18.0831 20.612 18.111 20.2046 17.7381C19.7973 17.3651 19.7694 16.7326 20.1424 16.3252C21.2408 15.1255 21.8799 13.6215 21.8799 12.0005C21.8799 10.3795 21.2408 8.87546 20.1424 7.67579C19.7694 7.26845 19.7973 6.6359 20.2046 6.26294Z" fill="white"/>
</svg>

<svg xmlns="http://www.w3.org/2000/svg" width="25" height="24" fill="none" viewBox="0 0 25 24"><path fill="#fff" d="M11.872 3.976c.686-.527 1.504-.956 2.375-.587.863.365 1.14 1.244 1.26 2.11.123.886.123 2.107.123 3.625v5.756c0 1.518 0 2.739-.123 3.626-.12.865-.397 1.744-1.26 2.11-.871.368-1.689-.06-2.376-.588-.702-.54-1.594-1.451-2.644-2.523-.54-.551-.898-.817-1.26-.967-.365-.15-.808-.215-1.58-.215-.67 0-1.267 0-1.72-.047-.475-.049-.916-.156-1.313-.427-.756-.516-1.045-1.27-1.155-1.965-.081-.517-.072-1.085-.064-1.543v-.678c-.008-.457-.017-1.026.064-1.543.11-.694.4-1.45 1.155-1.965.397-.27.838-.378 1.313-.427.453-.047 1.05-.047 1.72-.047.772 0 1.215-.064 1.58-.215.362-.15.72-.416 1.26-.967 1.05-1.072 1.942-1.983 2.644-2.523"/><path fill="#fff" fill-rule="evenodd" d="M17.273 8.206a1 1 0 0 1 1.402.188 5.93 5.93 0 0 1 1.205 3.607 5.93 5.93 0 0 1-1.205 3.606 1 1 0 1 1-1.59-1.213 3.93 3.93 0 0 0 .795-2.393c0-.915-.301-1.746-.795-2.394a1 1 0 0 1 .188-1.401" clip-rule="evenodd"/><path fill="#fff" fill-rule="evenodd" d="M20.205 6.263a1 1 0 0 1 1.413.062c1.403 1.533 2.262 3.508 2.262 5.676 0 2.167-.86 4.142-2.262 5.675a1 1 0 0 1-1.476-1.35c1.099-1.2 1.738-2.705 1.738-4.325s-.64-3.126-1.738-4.325a1 1 0 0 1 .063-1.413" clip-rule="evenodd"/></svg>
